X:1
T:Title
%%score 1 2 3 4
L:1/8
M:4/2
K:F
V:1 treble nm="Part_1"
V:2 treble-8 nm="Part_2"
V:3 treble-8 nm="Part_3"
V:4 bass nm="Part_4"
V:1
 F8 G8 | B8 G8 | B8 B8 | F8 G8 | G8 F8- | F8 D8 | E8 F8 | D6 E2 F4 G4- | (G4 F8) E4 | F16 || z16 | %11
 z16 | z16 | z16 | z16 | G8 A4 c4- | c4 =B4 c8 | B4 A6 F2 G4- | (G4 F8) E4 | F16 || c8 B4 G4 | %21
 G8 F8 | z4 G6 F2 E4 | D2 C2 F8 E4 | F4 A4 G8 | z4 c4 B4 d4 | c8 A4 (3:2:1B6- | %27
 (3:2:2B2 A4 G4 F4 c4 | B2 A2 G2 F2 E8 | z4 F8 E4 | F4 A6 B2 c4 | B2 A2 G2 F2 E4 A4- | %32
 A2 G2 F8 E4 | F16 || z16 | z16 | F8 D8 | F8 F8 | G4 A8 G4 | A16- | A16 | A16 | z4 A4 (3:2:2A8 B4 | %43
 c4 A4 d8 | G4 c6 B2 A4 | G4 F8 E4 | F8 z4 E4 | F6 G2 A4 A4 | B8 c4 A4- | A2 G2 F8 E4 | F16 || %51
 F8 A8 | c8 c8 | z4 G4 A8 | G4 c6 B2 A2 G2 | F4 B6 A2 G2 F2 | E4 F8 E4 | F6 G2 A6 B2 | c8 z4 c4- | %59
 c2 B2 G4 A8 | G4 c6 B2 A2 G2 | F4 B6 A2 G2 F2 | E4 F8 E4 | F8 z4 c4- | c2 B2 G4 A2 G2 c4- | %65
 c4 B2 A2 G8 | F4 F4 B8 | c8 z4 F4 | G8 A4 c4- | c4 B2 A2 B4 B4 | A4 G2 F2 c8 | F4 B4 A4 G4- | %72
 G2 F2 F8 E4 | F16 || z8 F8 | A8 c4 c4- | c4 =B4 c8 | z16 | z8 d8 | G8 A4 c4- | c4 =B4 c8 | %81
 z8 z4 d4 | d8 c8 | B8 A8 | B4 c8 =B4 | c16 || z8 G8 | A4 c8 B4 | c8 F8 | z4 G4 A4 c4- | %90
 c4 =B4 c8 | F4 G4 A6 G2 | A2 B2 c6 B2 A4- | A4 G4 A8 | z4 c8 B4 | A4 G2 F2 A4 G4- | G2 F2 F8 E4 | %97
 F16 || z16 | z16 | z8 (3:2:2G8 A4 | B4 c4 c4 =B4 | c8 z8 | z4 G4 A6 B2 | c8 B4 A4- | A4 G4 A4 c4 | %106
 B8 A4 G2 F2 | E4 G8 F4- | F4 E4 F8- | F16 ||[K:C] z16 | z16 | z16 | c8 A8 | c8 c4 (3:2:1d6- | %115
 (3:2:2d2 c4 c8 B4 | c16- | c16 | c16 | z16 | z8 c8 | A8 G8 | c8 d8 | c6 B2 A2 G2 _B4- | %124
 B2 A2 A8 G4 | A16 | z16 | F8 G8 | A8 D8 | C8 F6 G2 | A6 B2 c8 | d8 A8 | B4 c8 B4 | c6 _B2 G4 A4- | %134
 A4 G4 F8 | E16 || c8 A8 | G8 c8 | c8 d8 | c4 G4 A4 c4- | c4 B4 c8 | z4 A8 G2 F2 | E4 G8 F2 E2 | %143
 F8 E8 | z4 G4 F4 D4 | E16- | E8 z4 A4- | A2 G2 E4 F6 G2 | E4 C4 D8 | C4 c6 B2 A4 | %150
 G4 A4 B2 A2 G2 F2 | E16- | E16 |] %153
V:2
 z16 | f8 e8 | d8 d8 | z4 d8 d4 | G4 d8 c2 B2 | A4 B6 c2 d4 | c8 z4 A4 | B8 c4 d4- | %8
 d4 c4 d4 c2 B2 | A16 || c8 A8 | c8 d8 | A4 d8 e4 | f4 e2 d2 c4 d4- | d4 c8 B4 | c16 | z8 e8 | %17
 f8 d4 e4 | c4 B4 c8 | c16 || g8 f8 | (e8 c8) | d4 G8 c4 | A4 B4 c8 | z4 f4 e4 g4 | f8 d8 | %26
 z4 e4 f8 | e8 c8 | d8 e4 c4- | c2 A2 B4 c8 | z4 f8 e4 | d2 c2 B2 A2 G4 c4- | c4 B4 c8 | c16 || %34
 z16 | z16 | z16 | z16 | z16 | c8 A8 | c8 c8 | d4 e8 d4 | e8 e8 | f8 g8 | e8 f8 | d8 c8 | (d8 c8) | %47
 A8 z4 f4- | f2 e2 d4 c4 e4 | d8 c8 | c16 || z16 | c8 e8 | g8 f4 f4 | e4 d2 c2 g4 G4 | %55
 A4 B4 F4 B4 | A4 G2 F2 G8 | F8 z4 f4- | f4 e2 d2 e2 d2 g4- | g2 f2 e2 d2 c4 e4- | e2 d2 g8 f2 e2 | %61
 f2 e2 d2 c2 d8 | c8 z4 c4 | c8 A8 | z4 c4 (3:2:2c8 d4 | e4 f8 e4 | f2 e2 d2 c2 d8 | c8 z4 d4 | %68
 e2 d2 c2 B2 A4 F4- | F4 f4 d4 e4 | f4 e2 d2 c8 | d8 z4 e4 | c4 d4 c8 | c16 || c8 c4 c4 | %75
 f8 e6 f2 | g8 e8 | f8 e8 | d4 c8 =B4 | (3:2:2c8 B4 A4 F4 | G8 z4 g4- | g4 f2 e2 d4 f4- | %82
 f4 e2 d2 e4 f4 | g8 c4 d4- | d2 e2 f4 g8 | e16 || c8 e8 | f8 g8 | c8 d8 | e8 f8 | d8 c8 | d8 f8 | %92
 c8 c8 | B8 A8 | (A8 G8) | c16 | c16- | c16 || g8 g8 | f8 e8 | f8 g8 | e4 c4 d8 | c8 d8 | e8 f8 | %104
 c8 d8 | B8 A8 | G8 c8 | c16- | c16 | c16 ||[K:C] c8 d8 | e12 f4 | g4 c4 d8 | (e8 d8) | c8 A4 B4 | %115
 c4 A4 G8 | z4 G4 A4 F4 | G4 E6 F2 G4 | A8 z4 A4 | B4 c4 d8 | e12 c4 | c8 z8 | z4 c8 B4 | %123
 c4 e4 f4 g4 | e4 f4 d8 | z4 d4 c4 A4 | B8 A8 | z4 A4 c6 B2 | A2 G2 F4 G4 D4 | E8 D8 | %130
 z4 d4 c4 f4 | d6 e2 f4 c4 | d4 g6 f2 d4 | e4 c6 _B2 A2 G2 | F4 G4 A8 | G16 || c8 d4 d4 | %137
 e8 z4 e4- | e4 d2 c2 g6 f2 | e2 d2 g8 f4 | g8 e8 | (e8 d8) | G8 z4 G4 | A4 B4 c4 e4- | %144
 e4 d2 c2 d8 | G8 z4 c4- | c2 d2 e4 f8 | e8 z4 d4 | e4 g6 e2 f4 | e8 c4 e4- | e2 d2 c8 B4 | c16- | %152
 c16 |] %153
V:3
 z16 | z16 | F8 G8 | B8 G8 | B8 B8 | F8 G8 | G8 F8 | F6 G2 A4 B4- | B4 A4 G8 | F16 || z16 | z16 | %12
 z16 | z16 | z8 f8 | e8 f8 | d8 c8 | F6 G2 A4 B4 | A4 F4 G8 | F16 || z8 F8 | G8 A8 | B8 G4 A4- | %23
 A4 F4 G8 | F8 z8 | A8 B4 B4 | c8 F8 | G8 A8 | B8 G8 | F8 G8 | F8 z8 | D8 E8 | (F8 G8) | F16 || %34
 c8 A8 | c8 d8 | c4 A4 B8 | (A8 (3:2:2d8) c4 | B4 A4 B8 | A4 F4 c8 | F8 z4 f4- | f4 e4 f8 | c8 z8 | %43
 A8 B8 | c8 A8 | B8 G8 | F8 G8 | F4 A6 G2 F2 E2 | D8 z4 E4 | F4 A4 G8 | F16 || z8 F8 | A8 c8 | %53
 c8 A8 | c8 c8 | d8 B8 | c16- | c16 | c16 | c16 | z4 G4 c8 | A4 d6 c2 B2 A2 | G6 F2 G8 | F8 c8 | %64
 c8 A8 | c8 c8 | F4 A4 G4 B4 | A8 G4 F4- | F4 E4 F8 | z8 G8 | F8 F8 | D6 E2 F4 G4 | A4 B4 G8 | %73
 F16 || F8 A8 | c8 c8 | d8 c8 | z16 | z8 d8 | e8 f8 | d8 c6 B2 | G4 A4 B8 | z4 B4 c8 | %83
 d4 e4 (3:2:2f8 e4 | d4 c4 d4 d4 | c16 || c8 c8- | c4 c4 d4 G4 | A4 c8 B4 | c4 c4 F8 | %90
 z4 G4 A2 G2 c4- | c4 B4 c6 B2 | A2 G2 A4 F4 f4- | f4 d4 f8 | e4 d2 c2 d8 | c8 F4 G4 | A6 B2 G8 | %97
 F16 ||[K:C] (3:2:2G8 A4 B4 c4 | c4 B4 c4 G4 | A8 G8 | z8 z4 G4 | A4 c8 B4 | c16 | z16 | z16 | %106
 z4 G4 A4 c4- | c2 _B2 G4 A4 F4 | G8 F8- | F16 || c8 A8 | c8 c4 d4- | d2 c2 c8 B4 | (c8 f8) | %114
 e12 d4 | e4 f4 d8 | c16 | z8 G8 | c8 f6 e2 | d4 c8 B4 | c16 | z8 c8 | A8 G8 | c8 d8 | c4 A4 _B8 | %125
 A16 | z8 c8 | d8 e8 | A8 G8 | c8 d8 | A6 G2 A2 (B2 c4- | c4) B4 c4 f4- | f4 e4 d8 | c16- | c16 | %135
 c16 || z16 | z8 c8 | A8 G8 | c8 c8 | d8 c4 G4 | A4 c8 B4 | c4 e8 d2 c2 | d8 G8 | z4 G4 A4 B4 | %145
 c16 | z8 A8 | c8 d8 | c4 c8 B4 | c16 | z8 F8 | (G8 A8) | G16 |] %153
V:4
 F,8 E,8 | D,4 B,,4 C,8 | B,,8 z8 | z16 | z4 G,,4 B,,6 C,2 | D,8 (B,,8 | C,8) F,,8 | %7
 B,,8 A,,4 G,,4- | G,,4 A,,4 B,,4 C,4 | F,,16 || z16 | F,8 D,8 | F,8 G,8 | D,8 F,8 | E,4 F,4 D,8 | %15
 C,8 F,8 | G,4 G,4 A,8 | D,4 F,8 E,4 | F,4 D,4 C,8 | F,,16 || C,8 D,8 | E,8 F,8 | D,4 E,8 C,4 | %23
 D,8 C,8 | z8 E,8 | F,4 F,4 G,8 | C,8 D,8 | E,8 F,8 | D,8 C,8 | D,8 C,8 | z8 A,,8 | B,,8 (C,8 | %32
 D,8) C,8 | F,,16 || z16 | F,8 D,8 | F,8 G,8 | (F,8 (3:2:2_B,8) A,4 | G,4 F,4 G,8 | F,8 z8 | %40
 z4 F,4 (3:2:2F,8 E,4 | D,4 C,4 D,8 | (A,,8 A,8) | F,4 A,4 G,8 | z4 C,4 F,8 | B,,8 C,8 | z8 C,8 | %47
 D,4 F,6 E,2 D,2 C,2 | B,,8 A,,4 C,4 | D,4 F,4 C,8 | F,,16 || F,8 F,4 F,4- | F,4 E,2 D,2 C,8 | %53
 E,8 F,8 | C,8 E,8 | D,4 B,,4 D,8 | C,16 | z8 F,,8 | A,,8 C,8 | C,8 A,,8 | C,8 C,8 | D,8 B,,8 | %62
 C,16 | F,,16 | z16 | z16 | z8 G,,8 | A,,8 B,,8 | G,,8 (F,,8 | F,8) z8 | z4 F,,6 G,,2 A,,4 | %71
 B,,6 C,2 D,4 E,4 | F,4 B,,4 C,8 | F,,16 || F,8 F,8 | F,8 C,8 | G,8 C,8 | D,8 E,8 | F,8 D,8 | %79
 C,8 z8 | G,8 C,6 D,2 | E,4 F,4 B,,8 | B,8 (A,8 | G,8) F,8 | G,4 A,4 G,8 | C,16 || C,8 C,4 C,4 | %87
 F,4 A,4 G,8 | F,4 E,4 D,8 | C,6 B,,2 A,,8 | G,,8 C,8 | z4 G,4 F,8- | F,4 F,4 F,8 | G,8 F,8 | z16 | %95
 z4 F,,8 C,4 | A,,4 F,,4 C,8 | F,,16 || G,8 E,4 C,4 | D,8 C,4 E,4 | D,8 G,,4 G,4- | %101
 G,4 A,4 F,4 G,4 | C,4 E,4 D,8 | C,8 F,8 | E,4 F,4 B,,4 F,4 | G,8 F,8 | z8 z4 F,4 | %107
 C,4 E,4 F,4 F,,4 | C,8 F,,8- | F,,16 ||[K:C] C,8 F,8 | E,12 D,4 | E,4 F,4 D,8 | (C,8 D,8) | %114
 A,,8 z8 | z8 G,,8 | C,8 F,8 | E,4 (3:2:2C,8 D,4 E,4 | A,,4 A,8 F,4 | G,4 E,4 D,8 | %120
 C,6 D,2 E,4 F,4- | F,4 E,2 D,2 E,8 | F,8 z8 | z4 A,8 G,4 | A,4 F,4 G,8 | D,8 F,8 | G,8 A,8 | %127
 D,8 z4 C,4- | C,4 D,4 B,,8 | A,,8 z4 D,4- | D,2 E,2 F,6 G,2 A,4 | G,8 F,6 E,2 | D,4 C,4 G,8 | %133
 C,6 D,2 E,4 F,4- | F,4 E,4 F,8 | C,16 || z16 | z16 | z16 | C,8 A,,8 | G,,8 C,8 | C,8 D,8 | %142
 C,8 E,8 | D,8 C,8 | E,8 D,8 | C,8 A,,8 | C,8 D,8 | C,4 C,8 B,,4 | C,8 z8 | z8 A,,8 | (C,8 D,8) | %151
 C,16- | C,16 |] %153

